X: 195
T: No_53_Cow_Creek_Hunting_Dance_Song_(t).krn
N: Derived from No_53_Cow_Creek_Hunting_Dance_Song_(t).krn
%%abc-version 2.0
%%abcx-abcm2ps-target-version 5.9.1 (29 Sep 2008)
%%abc-creator hum2abc beta
%%abcx-conversion-date 2019/03/15 08:38:45
%%humdrum-veritas 2394840254
%%humdrum-veritas-data 153471763
%%linebreak <none>
%%barnumbers 0
L: 1/4
M: 2/4
K: F clef=bass
[K:clef=bass][M:2/4]CD3//C// | 
CA, | 
A,2 | 
A,/G,/F, | 
G,z | 
C/C/A, | 
CA, | 
G,2 | 
F,D,3//D,// | 
D,z | 
A,C | 
A,z | 
A,3//G,//F, | 
G,z | 
A,F, ||  
[M:3/4]F,2G,/F,/ | 
F,2D,/D,/ ||  
[M:2/4]F,2 | 
F,2 | 
A,/A,/F, | 
F,A, | 
A,2 | 
A,/G,/F, | 
G,z | 
C/C/D | 
CA, | 
G,2 | 
F,D, | 
D,z | 
A,C | 
A,z | 
A,3//G,//F, | 
G,z | 
A,F, ||  
[M:3/4]F,2G,/F,/ | 
F,2D,/D,/ | 
F,2F, |]  



